X:1
T:Pizzicato (Sylvia)
C:Léo Delibes
M:4/4
L:1/8
Q:1/4=152
K:G
.D |
.G2 .B2 .d2 .B2 | .G4 .D4 | .G2 .B2 .d2 .B2 | G6 z .G |
.B2 .d2 .B2 .d2 | .B4 .G4 | .D2 .G2 .B2 .G2 | D6 z .D |
.G2 .B2 .d2 .B2 | .G4 .D4 | .G2 .B2 .d2 .B2 | G6 z .G |
.A2 .c2 .A2 .F2 | .G2 .B2 .D4 | .B2 .d2 .G2 .B2 | G6 z |]
